Origami/64x64/apps/soapui.svg

<svg width="64" height="64" version="1" xmlns="http://www.w3.org/2000/svg">
 <rect transform="matrix(-.70710678 -.70710678 -.70710678 .70710678 0 0)" x="-66.28" y="-21.03" width="42.056" height="42.056" rx="4.206" ry="4.206" style="opacity:.2"/>
 <rect transform="matrix(-.70710678 -.70710678 -.70710678 .70710678 0 0)" x="-65.58" y="-21.73" width="42.056" height="42.056" rx="4.206" ry="4.206" style="fill:#66b744"/>
 <path d="m32 3c-1.075036 0-2.148908 0.4106269-2.972656 1.234375l-23.792969 23.792969c-0.9494461 0.949445-1.3374181 2.227638-1.1894531 3.458984 0.1052475-0.897386 0.4965598-1.766091 1.1894531-2.458984l23.792969-23.792969c0.823748-0.8237481 1.89762-1.234375 2.972656-1.234375s2.148908 0.4106269 2.972656 1.234375l23.792969 23.792969c0.692939 0.692893 1.08422 1.561598 1.189453 2.458984 0.147976-1.231346-0.239944-2.509539-1.189453-3.458984l-23.792969-23.792969c-0.823748-0.8237481-1.89762-1.234375-2.972656-1.234375z" style="fill:#ffffff;opacity:.2"/>
 <path d="m 32,11 c -5.12963,0 -9.249122,1.18929 -12.216797,3.5 -0.06367,0.04957 -0.117293,0.107484 -0.179687,0.158203 L 17.886719,16.375 C 16.160066,18.527546 15.28768,21.206974 15.486328,23.804688 16.009907,30.651484 22.828138,36 32,36 c 6.228138,0 8.478115,3.188789 8.613281,4.830078 0.06758,0.820644 -0.08895,1.475881 -1.21875,2.351563 C 38.264729,44.057323 35.927289,45 32,45 26.523809,45 19.984375,41.527344 19.984375,41.527344 a 4.0004,4.0004 0 0 0 -5.869141,2.326172 l 6.982422,6.982422 C 24.001793,51.932941 27.866233,53 32,53 c 5.062734,0 9.126424,-1.139815 12.09375,-3.355469 l 2.347656,-2.347656 c 1.564276,-2.100743 2.348168,-4.650324 2.144532,-7.123047 C 48.021104,33.315117 41.171862,28 32,28 25.771862,28 23.589313,24.848515 23.462891,23.195312 23.399681,22.36871 23.57314,21.691244 24.699219,20.814453 25.825294,19.937661 28.129628,19 32,19 c 5.476191,0 12.015625,3.472656 12.015625,3.472656 a 4.0004,4.0004 0 0 0 5.869141,-2.326172 L 42.902344,13.164062 C 39.998207,12.067059 36.133767,11 32,11 Z" style="fill-rule:evenodd;opacity:.2"/>
 <path d="m 32,10 c -5.12963,0 -9.249122,1.18929 -12.216797,3.5 -0.06367,0.04957 -0.117293,0.107484 -0.179687,0.158203 L 17.886719,15.375 C 16.160066,17.527546 15.28768,20.206974 15.486328,22.804688 16.009907,29.651484 22.828138,35 32,35 c 6.228138,0 8.478115,3.188789 8.613281,4.830078 0.06758,0.820644 -0.08895,1.475881 -1.21875,2.351563 C 38.264729,43.057323 35.927289,44 32,44 26.523809,44 19.984375,40.527344 19.984375,40.527344 a 4.0004,4.0004 0 0 0 -5.869141,2.326172 l 6.982422,6.982422 C 24.001793,50.932941 27.866233,52 32,52 c 5.062734,0 9.126424,-1.139815 12.09375,-3.355469 l 2.347656,-2.347656 c 1.564276,-2.100743 2.348168,-4.650324 2.144532,-7.123047 C 48.021104,32.315117 41.171862,27 32,27 25.771862,27 23.589313,23.848515 23.462891,22.195312 23.399681,21.36871 23.57314,20.691244 24.699219,19.814453 25.825294,18.937661 28.129628,18 32,18 c 5.476191,0 12.015625,3.472656 12.015625,3.472656 a 4.0004,4.0004 0 0 0 5.869141,-2.326172 L 42.902344,12.164062 C 39.998207,11.067059 36.133767,10 32,10 Z" style="fill-rule:evenodd;fill:#ffffff"/>
</svg>

<svg xmlns="http://www.w3.org/2000/svg" width="64" height="64" version="1">
 <rect style="opacity:0.2" width="42.056" height="42.056" x="-66.28" y="-21.03" rx="4.206" ry="4.206" transform="matrix(-0.70710678,-0.70710678,-0.70710678,0.70710678,0,0)"/>
 <rect style="fill:#66b744" width="42.056" height="42.056" x="-65.58" y="-21.73" rx="4.206" ry="4.206" transform="matrix(-0.70710678,-0.70710678,-0.70710678,0.70710678,0,0)"/>
 <path style="opacity:0.2;fill:#ffffff" d="M 32 3 C 30.924964 3 29.851092 3.4106269 29.027344 4.234375 L 5.234375 28.027344 C 4.2849289 28.976789 3.8969569 30.254982 4.0449219 31.486328 C 4.1501694 30.588942 4.5414817 29.720237 5.234375 29.027344 L 29.027344 5.234375 C 29.851092 4.4106269 30.924964 4 32 4 C 33.075036 4 34.148908 4.4106269 34.972656 5.234375 L 58.765625 29.027344 C 59.458564 29.720237 59.849845 30.588942 59.955078 31.486328 C 60.103054 30.254982 59.715134 28.976789 58.765625 28.027344 L 34.972656 4.234375 C 34.148908 3.4106269 33.075036 3 32 3 z"/>
 <path style="opacity:0.2;fill-rule:evenodd" d="m 32,11 c -5.12963,0 -9.249122,1.18929 -12.216797,3.5 -0.06367,0.04957 -0.117293,0.107484 -0.179687,0.158203 L 17.886719,16.375 C 16.160066,18.527546 15.28768,21.206974 15.486328,23.804688 16.009907,30.651484 22.828138,36 32,36 c 6.228138,0 8.478115,3.188789 8.613281,4.830078 0.06758,0.820644 -0.08895,1.475881 -1.21875,2.351563 C 38.264729,44.057323 35.927289,45 32,45 26.523809,45 19.984375,41.527344 19.984375,41.527344 a 4.0004,4.0004 0 0 0 -5.869141,2.326172 l 6.982422,6.982422 C 24.001793,51.932941 27.866233,53 32,53 c 5.062734,0 9.126424,-1.139815 12.09375,-3.355469 l 2.347656,-2.347656 c 1.564276,-2.100743 2.348168,-4.650324 2.144532,-7.123047 C 48.021104,33.315117 41.171862,28 32,28 25.771862,28 23.589313,24.848515 23.462891,23.195312 23.399681,22.36871 23.57314,21.691244 24.699219,20.814453 25.825294,19.937661 28.129628,19 32,19 c 5.476191,0 12.015625,3.472656 12.015625,3.472656 a 4.0004,4.0004 0 0 0 5.869141,-2.326172 L 42.902344,13.164062 C 39.998207,12.067059 36.133767,11 32,11 Z"/>
 <path style="fill:#ffffff;fill-rule:evenodd" d="m 32,10 c -5.12963,0 -9.249122,1.18929 -12.216797,3.5 -0.06367,0.04957 -0.117293,0.107484 -0.179687,0.158203 L 17.886719,15.375 C 16.160066,17.527546 15.28768,20.206974 15.486328,22.804688 16.009907,29.651484 22.828138,35 32,35 c 6.228138,0 8.478115,3.188789 8.613281,4.830078 0.06758,0.820644 -0.08895,1.475881 -1.21875,2.351563 C 38.264729,43.057323 35.927289,44 32,44 26.523809,44 19.984375,40.527344 19.984375,40.527344 a 4.0004,4.0004 0 0 0 -5.869141,2.326172 l 6.982422,6.982422 C 24.001793,50.932941 27.866233,52 32,52 c 5.062734,0 9.126424,-1.139815 12.09375,-3.355469 l 2.347656,-2.347656 c 1.564276,-2.100743 2.348168,-4.650324 2.144532,-7.123047 C 48.021104,32.315117 41.171862,27 32,27 25.771862,27 23.589313,23.848515 23.462891,22.195312 23.399681,21.36871 23.57314,20.691244 24.699219,19.814453 25.825294,18.937661 28.129628,18 32,18 c 5.476191,0 12.015625,3.472656 12.015625,3.472656 a 4.0004,4.0004 0 0 0 5.869141,-2.326172 L 42.902344,12.164062 C 39.998207,11.067059 36.133767,10 32,10 Z"/>
</svg>
